X: 23013
T: Last Monday Night's
R: polka
M: 2/4
K: Dmajor
|:F2 F/E/D/E/|FA AB|AF DE|FE E2|
F2 F/E/D/E/|FA AB|AF EF|1 D2 D2:|2 D2 D||
|:A|d2 d/c/B/A/|BA FB|AF DE|FE EA|
d2 d/c/B/A/|BA FB|AF EF|D2 D:|
|:A|d2 f/e/d|ec A2|BA FB|AF EA|
d2 f/e/d|ec AB|AF EF|1 D2 D:|2 D2 D2||

